www/images/cmd@2x.svg

<svg fill="none" height="54" viewBox="0 0 55 54" width="55" xmlns="http://www.w3.org/2000/svg"><path d="m21.945 38.6316v3.7206c0 .2148.0869.4208.2417.5727.1547.152.3645.2373.5833.2373h10.9065c.2188 0 .4287-.0853.5834-.2373.1547-.1519.2416-.3579.2416-.5727v-3.7044l2.0955-2.8944c.0999-.1371.1537-.3013.154-.4698v-9.1314c-.0014-.6904-.281-1.3521-.7777-1.8408s-1.1701-.7646-1.8733-.7674h-.0935c-.3552-.0006-.7069.0692-1.034.2052-.0374-.4049-.1713-.7955-.3908-1.1402-.2196-.3448-.5187-.6339-.8731-.8442s-.7543-.3357-1.1672-.3662-.8274.0348-1.2099.1906v-6.0588c.0021-.6261-.2257-1.232-.6416-1.7065-.416-.4746-.9923-.786-1.6232-.8772s-1.2741.0439-1.8117.3806c-.5377.3367-.9337.8524-1.1155 1.4525-.4037-.1917-.8504-.2793-1.2981-.2545-.4477.0247-.8816.1611-1.2608.3961-.3792.2351-.6911.5611-.9064.9473-.2153.3861-.3269.8198-.3242 1.2601v9.612l-.11-.1728-.055-.0756c-.2234-.268-.4998-.4887-.8126-.6487s-.6555-.2561-1.0072-.2823c-.3517-.0263-.7051.0178-1.039.1296-.3338.1117-.6411.2888-.9032.5206-.4828.4301-.7847 1.0217-.8468 1.6588-.062.6372.1203 1.2742.5113 1.7864zm-4.4385-11.2158c.0938-.0824.2033-.1459.3221-.1867.1189-.0408.2447-.0582.3704-.0511.1257.007.2487.0383.3621.0921.1133.0537.2147.129.2984.2213l1.6005 2.4516c.092.1574.2351.28.4064.3481.1714.068.3611.0776.5386.0272.1776-.0505.3328-.158.4407-.3054.1079-.1473.1622-.326.1543-.5073v-12.3768c0-.2628.1064-.5149.2956-.7007.1893-.1858.446-.2902.7137-.2902.2676 0 .5244.1044.7136.2902.1893.1858.2956.4379.2956.7007v9.8334c0 .2148.0869.4208.2417.5727.1547.1519.3645.2373.5833.2373s.4287-.0854.5834-.2373.2416-.3579.2416-.5727v-11.4318c0-.2628.1064-.5149.2956-.7007.1893-.1858.446-.2902.7137-.2902.2676 0 .5244.1044.7136.2902.1893.1858.2956.4379.2956.7007v11.4318c0 .2148.0869.4208.2417.5727.1547.1519.3645.2373.5833.2373s.4287-.0854.5834-.2373.2416-.3579.2416-.5727v-2.9808c0-.2628.1064-.5149.2956-.7007.1893-.1858.446-.2902.7137-.2902.2676 0 .5244.1044.7136.2902.1893.1858.2956.4379.2956.7007v4.2066c0 .2148.0869.4208.2417.5727.1547.1519.3645.2373.5833.2373s.4287-.0854.5834-.2373.2416-.3579.2416-.5727v-.918s0 0 0-.0378v-1.08c0-.2621.1061-.5135.2948-.6988.1888-.1853.4448-.2894.7117-.2894h.088c.267 0 .523.1041.7117.2894.1888.1853.2948.4367.2948.6988v8.8776l-2.1065 2.8944c-.0998.1371-.1537.3013-.154.4698v3.1482h-9.251v-3.1482c-.0004-.1552-.0462-.307-.132-.4374l-6.05-9.18-.044-.0594c-.1525-.1925-.2233-.4353-.1977-.6779.0256-.2425.1457-.4659.3352-.6235z" fill="#000"/><path d="m17.5065 27.4158c.0938-.0824.2033-.1459.3221-.1867.1189-.0408.2447-.0582.3704-.0511.1257.007.2487.0383.3621.0921.1133.0537.2147.129.2984.2213l1.6005 2.4516c.092.1574.2351.28.4064.3481.1714.068.3611.0776.5386.0272.1776-.0505.3328-.158.4407-.3054.1079-.1473.1622-.326.1543-.5073v-12.3768c0-.2628.1064-.5149.2956-.7007.1893-.1858.446-.2902.7137-.2902.2676 0 .5244.1044.7136.2902.1893.1858.2956.4379.2956.7007v9.8334c0 .2148.0869.4208.2417.5727.1547.1519.3645.2373.5833.2373s.4287-.0854.5834-.2373.2416-.3579.2416-.5727v-11.4318c0-.2628.1064-.5149.2956-.7007.1893-.1858.446-.2902.7137-.2902.2676 0 .5244.1044.7136.2902.1893.1858.2956.4379.2956.7007v11.4318c0 .2148.0869.4208.2417.5727.1547.1519.3645.2373.5833.2373s.4287-.0854.5834-.2373.2416-.3579.2416-.5727v-2.9808c0-.2628.1064-.5149.2956-.7007.1893-.1858.446-.2902.7137-.2902.2676 0 .5244.1044.7136.2902.1893.1858.2956.4379.2956.7007v4.2066c0 .2148.0869.4208.2417.5727.1547.1519.3645.2373.5833.2373s.4287-.0854.5834-.2373.2416-.3579.2416-.5727v-.918s0 0 0-.0378v-1.08c0-.2621.1061-.5135.2948-.6988.1888-.1853.4448-.2894.7117-.2894h.088c.267 0 .523.1041.7117.2894.1888.1853.2948.4367.2948.6988v8.8776l-2.1065 2.8944c-.0998.1371-.1537.3013-.154.4698v3.1482h-9.251v-3.1482c-.0004-.1552-.0462-.307-.132-.4374l-6.05-9.18-.044-.0594c-.1525-.1925-.2233-.4353-.1977-.6779.0256-.2425.1457-.4659.3352-.6235z" fill="#fff"/></svg>

<svg width="55" height="54" viewBox="0 0 55 54" fill="none" xmlns="http://www.w3.org/2000/svg">
<path d="M21.945 38.6316V42.3522C21.945 42.567 22.0319 42.773 22.1867 42.9249C22.3414 43.0769 22.5512 43.1622 22.77 43.1622H33.6765C33.8953 43.1622 34.1052 43.0769 34.2599 42.9249C34.4146 42.773 34.5015 42.567 34.5015 42.3522V38.6478L36.597 35.7534C36.6969 35.6163 36.7507 35.4521 36.751 35.2836V26.1522C36.7496 25.4618 36.47 24.8001 35.9733 24.3114C35.4766 23.8227 34.8032 23.5468 34.1 23.544H34.0065C33.6513 23.5434 33.2996 23.6132 32.9725 23.7492C32.9351 23.3443 32.8012 22.9537 32.5817 22.609C32.3621 22.2642 32.063 21.9751 31.7086 21.7648C31.3542 21.5545 30.9543 21.4291 30.5414 21.3986C30.1285 21.3681 29.714 21.4334 29.3315 21.5892V15.5304C29.3336 14.9043 29.1058 14.2984 28.6899 13.8239C28.2739 13.3493 27.6976 13.0379 27.0667 12.9467C26.4358 12.8555 25.7926 12.9906 25.255 13.3273C24.7173 13.664 24.3213 14.1797 24.1395 14.7798C23.7358 14.5881 23.2891 14.5005 22.8414 14.5253C22.3937 14.55 21.9598 14.6864 21.5806 14.9214C21.2014 15.1565 20.8895 15.4825 20.6742 15.8687C20.4589 16.2548 20.3473 16.6885 20.35 17.1288V26.7408L20.24 26.568L20.185 26.4924C19.9616 26.2244 19.6852 26.0037 19.3724 25.8437C19.0596 25.6837 18.7169 25.5876 18.3652 25.5614C18.0135 25.5351 17.6601 25.5792 17.3262 25.691C16.9924 25.8027 16.6851 25.9798 16.423 26.2116C15.9402 26.6417 15.6383 27.2333 15.5762 27.8704C15.5142 28.5076 15.6965 29.1446 16.0875 29.6568L21.945 38.6316ZM17.5065 27.4158C17.6003 27.3334 17.7098 27.2699 17.8286 27.2291C17.9475 27.1883 18.0733 27.1709 18.199 27.178C18.3247 27.185 18.4477 27.2163 18.5611 27.2701C18.6744 27.3238 18.7758 27.3991 18.8595 27.4914L20.46 29.943C20.552 30.1004 20.6951 30.223 20.8664 30.2911C21.0378 30.3591 21.2275 30.3687 21.405 30.3183C21.5826 30.2678 21.7378 30.1603 21.8457 30.0129C21.9536 29.8656 22.0079 29.6869 22 29.5056V17.1288C22 16.866 22.1064 16.6139 22.2956 16.4281C22.4849 16.2423 22.7416 16.1379 23.0093 16.1379C23.2769 16.1379 23.5337 16.2423 23.7229 16.4281C23.9122 16.6139 24.0185 16.866 24.0185 17.1288V26.9622C24.0185 27.177 24.1054 27.383 24.2602 27.5349C24.4149 27.6868 24.6247 27.7722 24.8435 27.7722C25.0623 27.7722 25.2722 27.6868 25.4269 27.5349C25.5816 27.383 25.6685 27.177 25.6685 26.9622V15.5304C25.6685 15.2676 25.7749 15.0155 25.9641 14.8297C26.1534 14.6439 26.4101 14.5395 26.6778 14.5395C26.9454 14.5395 27.2022 14.6439 27.3914 14.8297C27.5807 15.0155 27.687 15.2676 27.687 15.5304V26.9622C27.687 27.177 27.7739 27.383 27.9287 27.5349C28.0834 27.6868 28.2932 27.7722 28.512 27.7722C28.7308 27.7722 28.9407 27.6868 29.0954 27.5349C29.2501 27.383 29.337 27.177 29.337 26.9622V23.9814C29.337 23.7186 29.4434 23.4665 29.6326 23.2807C29.8219 23.0949 30.0786 22.9905 30.3463 22.9905C30.6139 22.9905 30.8707 23.0949 31.0599 23.2807C31.2492 23.4665 31.3555 23.7186 31.3555 23.9814V28.188C31.3555 28.4028 31.4424 28.6088 31.5972 28.7607C31.7519 28.9126 31.9617 28.998 32.1805 28.998C32.3993 28.998 32.6092 28.9126 32.7639 28.7607C32.9186 28.6088 33.0055 28.4028 33.0055 28.188V27.27C33.0055 27.27 33.0055 27.27 33.0055 27.2322V26.1522C33.0055 25.8901 33.1116 25.6387 33.3003 25.4534C33.4891 25.2681 33.7451 25.164 34.012 25.164H34.1C34.367 25.164 34.623 25.2681 34.8117 25.4534C35.0005 25.6387 35.1065 25.8901 35.1065 26.1522V35.0298L33 37.9242C32.9002 38.0613 32.8463 38.2255 32.846 38.394V41.5422H23.595V38.394C23.5946 38.2388 23.5488 38.087 23.463 37.9566L17.413 28.7766L17.369 28.7172C17.2165 28.5247 17.1457 28.2819 17.1713 28.0393C17.1969 27.7968 17.317 27.5734 17.5065 27.4158Z" fill="black"/>
<path d="M17.5065 27.4158C17.6003 27.3334 17.7098 27.2699 17.8286 27.2291C17.9475 27.1883 18.0733 27.1709 18.199 27.178C18.3247 27.185 18.4477 27.2163 18.5611 27.2701C18.6744 27.3238 18.7758 27.3991 18.8595 27.4914L20.46 29.943C20.552 30.1004 20.6951 30.223 20.8664 30.2911C21.0378 30.3591 21.2275 30.3687 21.405 30.3183C21.5826 30.2678 21.7378 30.1603 21.8457 30.0129C21.9536 29.8656 22.0079 29.6869 22 29.5056V17.1288C22 16.866 22.1064 16.6139 22.2956 16.4281C22.4849 16.2423 22.7416 16.1379 23.0093 16.1379C23.2769 16.1379 23.5337 16.2423 23.7229 16.4281C23.9122 16.6139 24.0185 16.866 24.0185 17.1288V26.9622C24.0185 27.177 24.1054 27.383 24.2602 27.5349C24.4149 27.6868 24.6247 27.7722 24.8435 27.7722C25.0623 27.7722 25.2722 27.6868 25.4269 27.5349C25.5816 27.383 25.6685 27.177 25.6685 26.9622V15.5304C25.6685 15.2676 25.7749 15.0155 25.9641 14.8297C26.1534 14.6439 26.4101 14.5395 26.6778 14.5395C26.9454 14.5395 27.2022 14.6439 27.3914 14.8297C27.5807 15.0155 27.687 15.2676 27.687 15.5304V26.9622C27.687 27.177 27.7739 27.383 27.9287 27.5349C28.0834 27.6868 28.2932 27.7722 28.512 27.7722C28.7308 27.7722 28.9407 27.6868 29.0954 27.5349C29.2501 27.383 29.337 27.177 29.337 26.9622V23.9814C29.337 23.7186 29.4434 23.4665 29.6326 23.2807C29.8219 23.0949 30.0786 22.9905 30.3463 22.9905C30.6139 22.9905 30.8707 23.0949 31.0599 23.2807C31.2492 23.4665 31.3555 23.7186 31.3555 23.9814V28.188C31.3555 28.4028 31.4424 28.6088 31.5972 28.7607C31.7519 28.9126 31.9617 28.998 32.1805 28.998C32.3993 28.998 32.6092 28.9126 32.7639 28.7607C32.9186 28.6088 33.0055 28.4028 33.0055 28.188V27.27C33.0055 27.27 33.0055 27.27 33.0055 27.2322V26.1522C33.0055 25.8901 33.1116 25.6387 33.3003 25.4534C33.4891 25.2681 33.7451 25.164 34.012 25.164H34.1C34.367 25.164 34.623 25.2681 34.8117 25.4534C35.0005 25.6387 35.1065 25.8901 35.1065 26.1522V35.0298L33 37.9242C32.9002 38.0613 32.8463 38.2255 32.846 38.394V41.5422H23.595V38.394C23.5946 38.2388 23.5488 38.087 23.463 37.9566L17.413 28.7766L17.369 28.7172C17.2165 28.5247 17.1457 28.2819 17.1713 28.0393C17.1969 27.7968 17.317 27.5734 17.5065 27.4158Z" fill="white"/>
</svg>
